X:2852
T:Charlevoix Reel
M:4/4
K:G
(3def|gGGG BGdB|ABcd edef|gGGG BGdG|eGfGg2(3def|gGGG BGdB|ABcd edef|gfed edcB|cedBG2:||dc|BGDG BBGB|ABcd eedc|BGDG BGdG|eGfG gddc|DGGG BGAG|FGAB cdef|gfed edcB|cedBG2:||


